image/china-on3.svg

<svg width="34" height="34" viewBox="0 0 34 34" fill="none" xmlns="http://www.w3.org/2000/svg">
<path d="M22.25 29.5V26.6667C22.25 25.1638 21.653 23.7224 20.5903 22.6597C19.5276 21.597 18.0862 21 16.5833 21H6.66667C5.16377 21 3.72243 21.597 2.65973 22.6597C1.59702 23.7224 1 25.1638 1 26.6667V29.5" stroke="#E03D3B" stroke-width="2" stroke-linecap="round" stroke-linejoin="round"/>
<path d="M11.6252 15.3333C14.7548 15.3333 17.2918 12.7963 17.2918 9.66667C17.2918 6.53705 14.7548 4 11.6252 4C8.49555 4 5.9585 6.53705 5.9585 9.66667C5.9585 12.7963 8.49555 15.3333 11.6252 15.3333Z" stroke="#E03D3B" stroke-width="2" stroke-linecap="round" stroke-linejoin="round"/>
<path d="M23.667 15.3333L26.5003 18.1667L32.167 12.5" stroke="#E03D3B" stroke-width="2" stroke-linecap="round" stroke-linejoin="round"/>
</svg>

<?xml version="1.0" encoding="UTF-8" standalone="no"?>
<svg width="34" xmlns="http://www.w3.org/2000/svg" fill="none" viewBox="0 0 34 34" height="34">
 <path stroke-linejoin="round" stroke="#E03D3B" stroke-width="2" stroke-linecap="round" d="m22.25 29.5v-2.833c0-1.503-0.597-2.945-1.66-4.007-1.062-1.063-2.504-1.66-4.007-1.66h-9.9163c-1.5029 0-2.9443 0.597-4.007 1.66-1.0627 1.062-1.6597 2.504-1.6597 4.007v2.833"/>
 <path stroke-linejoin="round" stroke="#E03D3B" stroke-width="2" stroke-linecap="round" d="m11.625 15.333c3.13 0 5.667-2.537 5.667-5.6663 0-3.1297-2.537-5.6667-5.667-5.6667-3.1294 0-5.6665 2.537-5.6665 5.6667 0 3.1293 2.5371 5.6663 5.6665 5.6663z"/>
 <path stroke-linejoin="round" stroke="#E03D3B" stroke-width="2" stroke-linecap="round" d="m23.667 15.333l2.833 2.834 5.667-5.667"/>
</svg>
